; generated by Slic3r 1.2.9 on 2018-11-04 at 14:01:16

; external perimeters extrusion width = 0.50mm
; perimeters extrusion width = 0.58mm
; infill extrusion width = 0.58mm
; solid infill extrusion width = 0.58mm
; top infill extrusion width = 0.58mm

M107
M104 S205 ; set temperature
G28 ; home all axes
G1 Z5 F5000 ; lift nozzle

M109 S205 ; wait for temperature to be reached
G21 ; set units to millimeters
G90 ; use absolute coordinates
M82 ; use absolute distances for extrusion
G92 E0
G1 Z0.500 F7800.000
G1 E-2.00000 F2400.00000
G92 E0
G1 X70.525 Y88.161 F7800.000
G1 E2.00000 F2400.00000
G1 X71.023 Y87.807 E2.03859 F1800.000
G1 X71.523 Y87.500 E2.07565
G1 X72.088 Y87.207 E2.11583
G1 X72.644 Y86.968 E2.15408
G1 X73.198 Y86.774 E2.19113
G1 X73.762 Y86.618 E2.22806
G1 X74.367 Y86.495 E2.26705
G1 X74.926 Y86.420 E2.30271
G1 X98.729 Y84.940 E3.80867
G1 X99.556 Y84.906 E3.86088
G1 X100.318 Y84.902 E3.90900
G1 X101.166 Y84.928 E3.96259 F1800.000
G1 X102.037 Y84.990 E4.01774
G1 X102.882 Y85.083 E4.07139
G1 X103.720 Y85.209 E4.12496
G1 X104.550 Y85.366 E4.17825
G1 X105.313 Y85.540 E4.22771
G1 X106.180 Y85.773 E4.28439
G1 X106.956 Y86.013 E4.33564
G1 X107.783 Y86.305 E4.39102
G1 X108.589 Y86.626 E4.44583
G1 X109.311 Y86.945 E4.49564
G1 X110.215 Y87.390 E4.55931
G1 X111.006 Y87.824 E4.61625
G1 X111.672 Y88.222 E4.66527
G1 X112.403 Y88.697 E4.72030
G1 X113.064 Y89.163 E4.77141
G1 X113.828 Y89.749 E4.83219
G1 X114.494 Y90.307 E4.88700
G1 X115.145 Y90.897 E4.94254
G1 X115.811 Y91.553 E5.00157
G1 X116.459 Y92.248 E5.06155
G1 X117.106 Y93.008 E5.12457
G1 X117.665 Y93.724 E5.18193
G1 X118.143 Y94.387 E5.23356
G1 X118.635 Y95.132 E5.28991
G1 X119.075 Y95.859 E5.34360
G1 X119.329 Y96.330 E5.37739
G1 X119.553 Y96.819 E5.41133
G1 X119.785 Y97.440 E5.45318
G1 X119.965 Y98.070 E5.49459
G1 X120.089 Y98.681 E5.53391
G1 X120.177 Y99.433 E5.58176
G1 X120.196 Y100.037 E5.61990
G1 X120.170 Y100.663 E5.65946
G1 X120.100 Y101.248 E5.69667
G1 X119.991 Y101.820 E5.73344
G1 X119.861 Y102.314 E5.76569
G1 X119.692 Y102.828 E5.79987
G1 X119.449 Y103.417 E5.84006
G1 X119.154 Y104.002 E5.88146
G1 X118.710 Y104.747 E5.93624
G1 X118.180 Y105.558 E5.99741
G1 X117.633 Y106.320 E6.05667
G1 X117.115 Y106.983 E6.10975
G1 X116.509 Y107.696 E6.16885
G1 X115.851 Y108.405 E6.22995
G1 X115.190 Y109.060 E6.28870
G1 X114.514 Y109.676 E6.34644
G1 X113.878 Y110.211 E6.39892
G1 X113.228 Y110.716 E6.45089
G1 X112.564 Y111.193 E6.50250
G1 X111.809 Y111.692 E6.55965
G1 X111.178 Y112.077 E6.60635
G1 X110.406 Y112.509 E6.66218
G1 X109.688 Y112.875 E6.71309
G1 X108.875 Y113.251 E6.76964
G1 X108.138 Y113.558 E6.82010
G1 X107.337 Y113.857 E6.87407
G1 X106.571 Y114.110 E6.92497
G1 X105.722 Y114.354 E6.98081
G1 X104.876 Y114.563 E7.03578
G1 X104.056 Y114.731 E7.08865
G1 X103.252 Y114.865 E7.14016
G1 X102.456 Y114.968 E7.19083
G1 X101.553 Y115.048 E7.24807
G1 X100.686 Y115.091 E7.30286
G1 X99.888 Y115.099 E7.35327
G1 X98.950 Y115.072 E7.41254
G1 X74.933 Y113.581 E8.93199
G1 X74.389 Y113.509 E8.96664
G1 X73.885 Y113.411 E8.99909
G1 X73.420 Y113.293 E9.02939
G1 X72.805 Y113.093 E9.07022
G1 X72.200 Y112.845 E9.11147
G1 X71.650 Y112.570 E9.15032
G1 X71.123 Y112.259 E9.18896
G1 X70.552 Y111.859 E9.23301
G1 X70.110 Y111.498 E9.26901
G1 X69.606 Y111.020 E9.31286
G1 X69.149 Y110.509 E9.35619
G1 X68.827 Y110.094 E9.38934
G1 X68.526 Y109.653 E9.42303
G1 X68.221 Y109.135 E9.46104
G1 X67.909 Y108.498 E9.50581
G1 X67.676 Y107.909 E9.54582
G1 X67.540 Y107.496 E9.57324
G1 X67.397 Y106.960 E9.60831
G1 X67.278 Y106.356 E9.64714
G1 X67.197 Y105.697 E9.68909
G1 X67.163 Y104.927 E9.73777
G1 X67.163 Y95.073 E10.35997
G1 X67.209 Y94.174 E10.41682
G1 X67.282 Y93.618 E10.45225
G1 X67.391 Y93.068 E10.48761
G1 X67.505 Y92.624 E10.51660
G1 X67.676 Y92.091 E10.55192
G1 X67.893 Y91.538 E10.58945
G1 X68.107 Y91.083 E10.62123
G1 X68.527 Y90.345 E10.67486
G1 X68.803 Y89.938 E10.70591
G1 X69.154 Y89.485 E10.74207
G1 X69.695 Y88.890 E10.79286
G1 X70.110 Y88.502 E10.82873
G1 X70.467 Y88.209 E10.85786
G1 E8.85786 F2400.00000
G92 E0
G1 X100.138 Y105.931 F7800.000
G1 E2.00000 F2400.00000
G1 X99.408 Y105.902 E2.04610 F1800.000
G1 X99.326 Y105.488 E2.07279
G1 X99.959 Y105.197 E2.11677
G1 X100.120 Y105.858 E2.15972
G1 X98.598 Y105.856 F7800.000
G1 X98.082 Y105.825 E2.19233 F1800.000
G1 X97.993 Y105.434 E2.21765
G1 X98.244 Y105.293 E2.23581
G1 X98.640 Y105.332 E2.26088
G1 X98.604 Y105.782 E2.28937
G1 X95.170 Y105.261 F7800.000
G1 X95.033 Y105.636 E2.31457 F1800.000
G1 X93.904 Y105.566 E2.38596
G1 X93.881 Y105.087 E2.41623
G1 X94.410 Y105.002 E2.45005
G1 X94.695 Y104.906 E2.46905
G1 X95.110 Y105.216 E2.50179
G1 X85.229 Y104.639 F7800.000
G1 X85.095 Y105.021 E2.52735 F1800.000
G1 X84.190 Y104.965 E2.58463
G1 X84.767 Y104.313 E2.63965
G1 X85.168 Y104.596 E2.67067
G1 X84.761 Y102.466 F7800.000
G1 X85.127 Y103.304 E2.72844 F1800.000
G1 X85.504 Y103.740 E2.76484
G1 X85.928 Y104.040 E2.79761
G1 X86.372 Y104.238 E2.82833
G1 X86.837 Y104.369 E2.85884
G1 X87.346 Y104.439 E2.89125
G1 X87.740 Y104.451 E2.91616
G1 X88.279 Y104.421 E2.95025
G1 X88.906 Y104.284 E2.99080
G1 X89.420 Y104.066 E3.02605
G1 X90.067 Y103.626 E3.07541
G1 X90.649 Y104.099 E3.12279
G1 X91.120 Y104.276 E3.15455
G1 X91.595 Y104.315 E3.18461
G1 X92.082 Y104.269 E3.21552
G1 X92.875 Y104.277 E3.26558
G1 X93.497 Y104.245 E3.30491
G1 X94.194 Y104.133 E3.34953
G1 X94.926 Y103.886 E3.39828
G1 X95.117 Y104.107 E3.41679
G1 X95.572 Y104.447 E3.45263
G1 X95.990 Y104.633 E3.48151
G1 X96.399 Y104.733 E3.50809
G1 X96.819 Y104.762 E3.53467
G1 X97.239 Y104.716 E3.56138
G1 X97.678 Y104.587 E3.59027
G1 X98.235 Y104.276 E3.63055
G1 X98.499 Y104.421 E3.64958
G1 X99.333 Y104.503 E3.70246
G1 X100.135 Y104.134 E3.75824
G1 X100.377 Y104.315 E3.77729
G1 X100.969 Y104.495 E3.81640
G1 X100.885 Y104.912 E3.84326
G1 X100.908 Y105.322 E3.86918
G1 X101.001 Y105.703 E3.89393
G1 X101.239 Y106.202 E3.92881
G1 X101.733 Y106.714 E3.97378
G1 X100.708 Y106.798 E4.03871
G1 X99.827 Y106.812 E4.09439
G1 X99.178 Y106.787 E4.13538
G1 X75.859 Y105.344 E5.61071
G1 X75.597 Y105.301 E5.62747
G1 X75.495 Y105.162 E5.63838
G1 X75.471 Y105.089 E5.64320
G1 X75.449 Y104.884 E5.65624
G1 X75.449 Y103.860 E5.72088
G1 X76.090 Y104.171 E5.76584
G1 X76.471 Y104.300 E5.79124
G1 X76.903 Y104.398 E5.81921
G1 X77.622 Y104.452 E5.86474
G1 X78.175 Y104.416 E5.89974
G1 X78.677 Y104.318 E5.93207
G1 X79.146 Y104.151 E5.96350
G1 X79.482 Y103.975 E5.98746
G1 X79.879 Y103.691 E6.01825
G1 X80.253 Y103.303 E6.05228
G1 X80.798 Y102.410 E6.11835
G1 X80.983 Y103.210 E6.17018
G1 X81.278 Y103.711 E6.20694
G1 X81.885 Y104.154 E6.25438
G1 X82.642 Y104.323 E6.30337
G1 X83.360 Y104.227 E6.34913
G1 X83.922 Y103.921 E6.38952
G1 X84.330 Y103.459 E6.42845
G1 X84.731 Y102.535 E6.49204
G1 X84.796 Y104.246 F7800.000
G1 X80.598 Y104.116 F7800.000
G1 X80.746 Y102.684 F7800.000
G1 X80.831 Y102.016 F7800.000
G1 X80.821 Y101.702 F7800.000
G1 X80.814 Y101.635 F7800.000
G1 X80.791 Y101.472 F7800.000
G1 X80.790 Y101.464 F7800.000
G1 X80.904 Y101.450 F7800.000
G1 X79.992 Y100.500 E6.57519 F1800.000
G1 X78.710 Y99.920 E6.66403
G1 X79.712 Y99.613 E6.73016
G1 X80.088 Y99.326 E6.76003
G1 X80.892 Y99.469 E6.81161
G1 X80.903 Y101.375 E6.93196
G1 E4.93196 F2400.00000
G92 E0
G1 X78.463 Y100.180 F7800.000
G1 E2.00000 F2400.00000
G1 X78.217 Y100.222 E2.01577 F1800.000
G1 X77.481 Y100.555 E2.06680
G1 X77.456 Y99.930 E2.10632
G1 X77.490 Y99.306 E2.14579
G1 X78.037 Y99.615 E2.18544
G1 X78.493 Y99.759 E2.21567
G1 X78.468 Y100.105 E2.23757
G1 E0.23757 F2400.00000
G92 E0
G1 X80.119 Y99.972 F7800.000
G1 X80.733 Y102.776 F7800.000
G1 X81.687 Y104.904 F7800.000
G1 X84.747 Y102.906 F7800.000
G1 X84.744 Y101.659 F7800.000
G1 X85.027 Y100.581 F7800.000
G1 X85.058 Y99.882 F7800.000
G1 X84.925 Y99.665 F7800.000
G1 X84.737 Y99.497 F7800.000
G1 X84.635 Y99.402 F7800.000
G1 X84.622 Y99.390 F7800.000
G1 E2.00000 F2400.00000
G1 X85.053 Y99.345 E2.02733 F1800.000
G1 X85.484 Y99.210 E2.05586
G1 X85.500 Y100.080 E2.11082
G1 X85.678 Y100.587 E2.14471
G1 X85.345 Y100.795 E2.16948
G1 X85.004 Y101.283 E2.20706
G1 X84.630 Y101.166 E2.23181
G1 X84.623 Y99.465 E2.33922
G1 X84.766 Y103.390 F7800.000
G1 X87.970 Y105.268 F7800.000
G1 X100.929 Y106.400 F7800.000
G1 X102.212 Y106.778 F7800.000
G1 X104.018 Y106.485 F7800.000
G1 X104.864 Y106.054 F7800.000
G1 X105.235 Y105.780 F7800.000
G1 X105.387 Y105.651 F7800.000
G1 X105.517 Y105.535 F7800.000
G1 X105.546 Y105.508 F7800.000
G1 X105.554 Y105.501 F7800.000
G1 X105.596 Y105.462 F7800.000
G1 X105.482 Y105.310 F7800.000
G1 X105.732 Y104.760 E2.37737 F1800.000
G1 X106.140 Y103.709 E2.44856
G1 X106.635 Y104.226 E2.49377
G1 X107.566 Y104.590 E2.55689
G1 X106.597 Y105.149 E2.62750
G1 X105.756 Y105.573 E2.68698
G1 X105.536 Y105.362 E2.70617
G1 X106.858 Y103.168 F7800.000
G1 X107.144 Y103.466 E2.73223 F1800.000
G1 X107.424 Y103.576 E2.75127
G1 X107.642 Y103.604 E2.76510
G1 X108.237 Y103.574 E2.80275
G1 X110.262 Y103.580 E2.93058
G1 X109.259 Y104.438 E3.01390
G1 X108.781 Y104.810 E3.05216
G1 X108.181 Y105.234 E3.09856
G1 X107.665 Y105.564 E3.13721
G1 X107.021 Y105.935 E3.18415
G1 X106.198 Y106.350 E3.24237
G1 X105.299 Y106.731 E3.30400
G1 X104.396 Y107.044 E3.36437
G1 X103.472 Y107.299 E3.42487
G1 X102.526 Y107.495 E3.48589
G1 X101.723 Y107.611 E3.53711
G1 X100.752 Y107.690 E3.59864
G1 X99.816 Y107.705 E3.65774
G1 X99.133 Y107.678 E3.70092
G1 X75.759 Y106.232 E5.17972
G1 X75.442 Y106.180 E5.19999
G1 X75.294 Y106.130 E5.20986
G1 X75.141 Y106.052 E5.22071
G1 X74.892 Y105.849 E5.24099
G1 X74.733 Y105.632 E5.25796
G1 X74.661 Y105.484 E5.26838
G1 X74.569 Y105.125 E5.29180
G1 X74.556 Y104.911 E5.30529
G1 X74.557 Y102.069 E5.48474
G1 X74.949 Y101.960 E5.51042
G1 X75.187 Y102.354 E5.53946
G1 X75.358 Y102.573 E5.55700
G1 X75.548 Y102.774 E5.57449
G1 X75.852 Y103.026 E5.59940
G1 X76.087 Y103.178 E5.61708
G1 X76.429 Y103.344 E5.64111
G1 X76.713 Y103.440 E5.66001
G1 X77.035 Y103.513 E5.68088
G1 X77.626 Y103.557 E5.71829
G1 X78.060 Y103.529 E5.74575
G1 X78.441 Y103.455 E5.77026
G1 X78.787 Y103.331 E5.79349
G1 X79.013 Y103.213 E5.80959
G1 X79.293 Y103.013 E5.83129
G1 X79.542 Y102.754 E5.85395
G1 X79.776 Y102.370 E5.88239
G1 X79.890 Y101.973 E5.90844
G1 X79.757 Y101.544 E5.93683
G1 X79.467 Y101.242 E5.96324
G1 X79.089 Y101.071 E5.98944
G1 X78.769 Y101.034 E6.00983
G1 X78.479 Y101.083 E6.02835
G1 X78.285 Y101.171 E6.04185
G1 X78.125 Y101.290 E6.05443
G1 X77.943 Y101.505 E6.07223
G1 X77.696 Y101.556 E6.08815
G1 X77.459 Y101.557 E6.10309
G1 X77.285 Y101.521 E6.11432
G1 X77.070 Y101.427 E6.12910
G1 X76.914 Y101.305 E6.14162
G1 X76.784 Y101.133 E6.15523
G1 X76.696 Y100.942 E6.16849
G1 X76.625 Y100.685 E6.18535
G1 X76.580 Y100.371 E6.20536
G1 X76.562 Y99.924 E6.23366
G1 X76.584 Y99.515 E6.25950
G1 X76.632 Y99.213 E6.27880
G1 X76.702 Y98.976 E6.29438
G1 X76.784 Y98.800 E6.30668
G1 X76.917 Y98.620 E6.32079
G1 X77.026 Y98.528 E6.32980
G1 X77.169 Y98.448 E6.34014
G1 X77.324 Y98.396 E6.35051
G1 X77.616 Y98.377 E6.36900
G1 X77.707 Y98.403 E6.37497
G1 X78.395 Y98.792 E6.42485
G1 X78.688 Y98.885 E6.44427
G1 X78.989 Y98.901 E6.46332
G1 X79.297 Y98.807 E6.48363
G1 X79.544 Y98.618 E6.50327
G1 X79.693 Y98.423 E6.51874
G1 X79.922 Y97.902 E6.55470
G1 X80.180 Y98.288 E6.58402
G1 X80.493 Y98.492 E6.60761
G1 X80.808 Y98.548 E6.62780
G1 X81.826 Y98.442 E6.69240
G1 X81.782 Y99.137 E6.73639
G1 X81.799 Y101.920 E6.91215
G1 X81.758 Y102.600 E6.95514
G1 X81.822 Y102.875 E6.97299
G1 X81.953 Y103.099 E6.98938
G1 X82.261 Y103.323 E7.01342
G1 X82.681 Y103.417 E7.04063
G1 X83.078 Y103.364 E7.06588
G1 X83.357 Y103.212 E7.08596
G1 X83.568 Y102.974 E7.10604
G1 X83.687 Y102.698 E7.12505
G1 X83.743 Y102.389 E7.14482
G1 X83.726 Y98.493 E7.39085
G1 X84.498 Y98.505 E7.43961
G1 X84.871 Y98.466 E7.46332
G1 X85.160 Y98.376 E7.48240
G1 X85.692 Y97.970 E7.52467
G1 X86.014 Y98.418 E7.55952
G1 X86.284 Y98.631 E7.58126
G1 X86.821 Y98.805 E7.61690
G1 X86.565 Y99.102 E7.64166
G1 X86.459 Y99.316 E7.65676
G1 X86.384 Y99.613 E7.67607
G1 X86.390 Y99.920 E7.69549
G1 X86.499 Y100.231 E7.71624
G1 X86.772 Y100.490 E7.74002
G1 X87.052 Y100.596 E7.75893
G1 X87.553 Y100.689 E7.79113
G1 X87.789 Y100.791 E7.80738
G1 X87.911 Y100.888 E7.81721
G1 X88.009 Y101.001 E7.82664
G1 X88.096 Y101.161 E7.83816
G1 X88.122 Y101.285 E7.84613
G1 X88.110 Y101.412 E7.85420
G1 X88.082 Y101.484 E7.85910
G1 X88.036 Y101.551 E7.86418
G1 X87.849 Y101.716 E7.87993
G1 X87.292 Y101.316 E7.92320
G1 X87.021 Y101.217 E7.94143
G1 X86.698 Y101.180 E7.96197
G1 X86.299 Y101.251 E7.98753
G1 X85.973 Y101.455 E8.01185
G1 X85.777 Y101.736 E8.03348
G1 X85.695 Y102.130 E8.05892
G1 X85.737 Y102.471 E8.08061
G1 X85.891 Y102.823 E8.10482
G1 X86.108 Y103.074 E8.12581
G1 X86.372 Y103.261 E8.14620
G1 X86.676 Y103.397 E8.16725
G1 X87.019 Y103.493 E8.18976
G1 X87.421 Y103.548 E8.21533
G1 X87.729 Y103.557 E8.23484
G1 X88.158 Y103.534 E8.26196
G1 X88.634 Y103.429 E8.29272
G1 X88.991 Y103.278 E8.31720
G1 X89.398 Y103.001 E8.34829
G1 X89.739 Y102.632 E8.37999
G1 X90.001 Y102.184 E8.41282
G1 X90.172 Y101.674 E8.44678
G1 X90.627 Y101.754 E8.47597
G1 X90.612 Y102.276 E8.50891
G1 X90.640 Y102.594 E8.52907
G1 X90.726 Y102.884 E8.54815
G1 X90.880 Y103.136 E8.56682
G1 X91.099 Y103.314 E8.58470
G1 X91.318 Y103.397 E8.59943
G1 X91.589 Y103.419 E8.61664
G1 X92.044 Y103.376 E8.64550
G1 X92.856 Y103.384 E8.69675
G1 X93.402 Y103.356 E8.73129
G1 X93.979 Y103.263 E8.76818
G1 X94.454 Y103.103 E8.79982
G1 X94.796 Y102.910 E8.82460
G1 X95.249 Y102.568 E8.86046
G1 X95.411 Y103.007 E8.88999
G1 X95.545 Y103.237 E8.90682
G1 X95.729 Y103.450 E8.92461
G1 X96.026 Y103.672 E8.94800
G1 X96.280 Y103.785 E8.96555
G1 X96.536 Y103.848 E8.98221
G1 X96.801 Y103.866 E8.99894
G1 X97.064 Y103.837 E9.01565
G1 X97.330 Y103.759 E9.03320
G1 X97.659 Y103.576 E9.05693
G1 X97.865 Y103.391 E9.07445
G1 X98.143 Y103.034 E9.10299
G1 X98.418 Y103.358 E9.12981
G1 X98.769 Y103.551 E9.15508
G1 X99.179 Y103.591 E9.18114
G1 X99.542 Y103.424 E9.20631
G1 X99.761 Y103.207 E9.22579
G1 X100.106 Y102.719 E9.26356
G1 X100.544 Y103.324 E9.31076
G1 X100.787 Y103.507 E9.32995
G1 X101.086 Y103.598 E9.34970
G1 X101.404 Y103.590 E9.36975
G1 X101.712 Y103.490 E9.39021
G1 X102.008 Y103.251 E9.41426
G1 X102.159 Y102.949 E9.43558
G1 X102.199 Y102.627 E9.45608
G1 X102.150 Y102.297 E9.47712
G1 X101.991 Y101.944 E9.50155
G1 X101.264 Y100.732 E9.59081
G1 X101.350 Y100.526 E9.60494
G1 X102.156 Y99.163 E9.70496
G1 X102.658 Y100.382 E9.78822
G1 X103.253 Y101.989 E9.89644
G1 X103.556 Y102.717 E9.94624
G1 X103.325 Y103.231 E9.98186
G1 X103.111 Y103.790 E10.01965
G1 X102.991 Y103.990 E10.03435
G1 X102.879 Y104.073 E10.04319
G1 X102.767 Y104.123 E10.05092
G1 X102.268 Y104.267 E10.08373
G1 X102.017 Y104.430 E10.10262
G1 X101.842 Y104.685 E10.12217
G1 X101.783 Y104.976 E10.14093
G1 X101.795 Y105.189 E10.15441
G1 X101.847 Y105.402 E10.16825
G1 X101.982 Y105.687 E10.18813
G1 X102.238 Y105.952 E10.21142
G1 X102.464 Y106.065 E10.22737
G1 X102.748 Y106.122 E10.24562
G1 X103.053 Y106.108 E10.26496
G1 X103.389 Y106.033 E10.28667
G1 X103.641 Y105.945 E10.30355
G1 X103.956 Y105.790 E10.32573
G1 X104.287 Y105.523 E10.35258
G1 X104.494 Y105.258 E10.37383
G1 X104.628 Y105.032 E10.39042
G1 X104.909 Y104.414 E10.43325
G1 X105.294 Y103.421 E10.50052
G1 X106.248 Y100.755 E10.67934
G1 X106.459 Y100.116 E10.72179
G1 X106.783 Y99.376 E10.77280
G1 X107.051 Y99.722 E10.80042
G1 X107.313 Y99.864 E10.81922
G1 X107.522 Y99.926 E10.83297
G1 X108.184 Y99.998 E10.87503
G1 X107.057 Y101.553 E10.99628
G1 X106.867 Y101.864 E11.01932
G1 X106.747 Y102.156 E11.03921
G1 X106.694 Y102.463 E11.05888
G1 X106.718 Y102.786 E11.07938
G1 X106.832 Y103.098 E11.10034
G1 X106.690 Y103.545 F7800.000
G1 E9.10034 F2400.00000
G92 E0
G1 X102.270 Y97.737 F7800.000
G1 X96.834 Y95.160 F7800.000
G1 X92.077 Y94.653 F7800.000
G1 X90.097 Y95.090 F7800.000
G1 X90.114 Y96.368 F7800.000
G1 X90.140 Y96.766 F7800.000
G1 X90.158 Y96.940 F7800.000
G1 X90.160 Y96.970 F7800.000
G1 X90.165 Y97.013 F7800.000
G1 X74.658 Y98.407 F7800.000
G1 E2.00000 F2400.00000
G1 X74.583 Y99.212 E2.05107 F1800.000
G1 X74.560 Y99.963 E2.09851
G1 X74.581 Y100.691 E2.14451
G1 X74.645 Y101.526 E2.19740
G1 E0.19740 F2400.00000
G92 E0
